src/assets/icons/critical.svg

<svg width="16" height="16" viewBox="0 0 16 16" fill="none" xmlns="http://www.w3.org/2000/svg">
<g clip-path="url(#clip0_13264_27870)">
<path fill-rule="evenodd" clip-rule="evenodd" d="M5.58059 0.014587C5.14779 0.0659907 4.76981 0.24102 4.4156 0.553995C4.16662 0.774002 0.52183 4.43706 0.432828 4.55674C0.228076 4.83203 0.110546 5.09189 0.0374608 5.43086C0.00639827 5.57496 0.00426865 5.73932 0.00426865 7.99895C0.00426865 10.2586 0.00639827 10.4229 0.0374608 10.567C0.110546 10.906 0.228076 11.1659 0.432828 11.4412C0.52183 11.5608 4.16662 15.2239 4.4156 15.4439C4.72164 15.7143 5.01034 15.8638 5.41083 15.9593C5.53844 15.9897 5.71784 15.9926 7.86168 15.9989C9.45406 16.0035 10.2363 15.9994 10.3721 15.9855C10.7668 15.9452 11.1139 15.809 11.4416 15.5656C11.5854 15.4588 15.4593 11.585 15.566 11.4412C15.8031 11.122 15.9419 10.7753 15.984 10.3978C16.011 10.1557 16.011 5.84222 15.984 5.60013C15.9419 5.22242 15.8028 4.87519 15.5659 4.55674C15.4769 4.43706 11.8321 0.774002 11.5831 0.553995C11.2771 0.283575 10.9885 0.134137 10.5879 0.0385999C10.4598 0.00803308 10.2861 0.00551795 8.08198 0.00226851C6.77945 0.000359229 5.65382 0.00590347 5.58059 0.014587ZM5.75123 1.858C5.69333 1.87863 5.292 2.27077 3.77456 3.78943C2.12515 5.44015 1.86791 5.70479 1.85085 5.7684C1.82332 5.87101 1.82328 10.1267 1.85082 10.2295C1.86787 10.2932 2.125 10.5575 3.78293 12.2154C5.44087 13.8733 5.70515 14.1305 5.76882 14.1475C5.87148 14.175 10.1273 14.175 10.2299 14.1475C10.2936 14.1305 10.5579 13.8733 12.2158 12.2154C13.8737 10.5575 14.1309 10.2932 14.1479 10.2295C14.1754 10.1268 14.1754 5.87106 14.1479 5.7684C14.1309 5.70473 13.8737 5.44044 12.2158 3.78251C10.5579 2.12458 10.2936 1.86745 10.2299 1.85039C10.1796 1.8369 9.47528 1.83093 7.99019 1.83141C6.17421 1.83202 5.81215 1.83631 5.75123 1.858ZM7.75922 3.5715C7.45117 3.65193 7.19068 3.91559 7.10884 4.22983C7.06711 4.39003 7.06777 8.361 7.10956 8.5214C7.17732 8.78155 7.37968 9.02607 7.61384 9.13075C7.86365 9.24242 8.1583 9.2376 8.41143 9.1177C8.53768 9.05788 8.73448 8.86683 8.8038 8.73676C8.92229 8.51449 8.91729 8.61833 8.91729 6.37423C8.91729 4.16216 8.9206 4.23931 8.81696 4.03479C8.75489 3.91229 8.59448 3.74396 8.46632 3.66683C8.33614 3.58848 8.15757 3.53996 7.99937 3.53996C7.93374 3.53996 7.82566 3.55415 7.75922 3.5715ZM7.84404 10.0383C7.47876 10.0931 7.17128 10.2897 6.97167 10.5961C6.7532 10.9314 6.72651 11.4099 6.90609 11.7716C7.25607 12.4765 8.14494 12.6797 8.75651 12.1946C9.24521 11.8069 9.35806 11.083 9.00975 10.5701C8.91586 10.4319 8.72477 10.256 8.58111 10.1757C8.37992 10.0632 8.06708 10.0049 7.84404 10.0383Z" fill="currentColor"/>
</g>
<defs>
<clipPath id="clip0_13264_27870">
<rect width="16" height="16" fill="white" transform="translate(0 -0.000732422)"/>
</clipPath>
</defs>
</svg>

<svg xmlns="http://www.w3.org/2000/svg" width="16" height="16" fill="none">
  <g clip-path="url(#a)">
    <path fill="currentColor" fill-rule="evenodd" d="M5.58.015c-.432.051-.81.226-1.164.539C4.166.774.522 4.437.433 4.557a2.126 2.126 0 0 0-.396.874c-.03.144-.033.308-.033 2.568 0 2.26.002 2.424.033 2.568.074.339.191.599.396.874.089.12 3.734 3.783 3.983 4.003.306.27.594.42.995.515.127.03.307.034 2.45.04 1.593.004 2.375 0 2.511-.014a2.1 2.1 0 0 0 1.07-.42c.143-.106 4.017-3.98 4.124-4.124.237-.319.376-.666.418-1.043.027-.242.027-4.556 0-4.798a2.114 2.114 0 0 0-.418-1.043c-.09-.12-3.734-3.783-3.983-4.003a2.143 2.143 0 0 0-.995-.515C10.46.008 10.286.006 8.082.002 6.779 0 5.654.006 5.581.015Zm.171 1.843c-.058.02-.459.413-1.976 1.931C2.125 5.44 1.868 5.705 1.85 5.77c-.028.102-.028 4.358 0 4.46.017.064.274.329 1.932 1.986 1.658 1.658 1.922 1.915 1.986 1.933.102.027 4.358.027 4.46 0 .065-.018.329-.275 1.987-1.933 1.658-1.658 1.915-1.922 1.932-1.986.027-.102.027-4.358 0-4.46-.017-.064-.274-.329-1.932-1.986-1.658-1.658-1.922-1.916-1.986-1.933-.05-.013-.755-.02-2.24-.019-1.816.001-2.178.005-2.239.027ZM7.76 3.571a.939.939 0 0 0-.65.659c-.042.16-.041 4.131 0 4.291a.96.96 0 0 0 .505.61.96.96 0 0 0 .797-.013c.127-.06.323-.251.393-.381.118-.223.113-.119.113-2.363 0-2.212.004-2.135-.1-2.34a1.103 1.103 0 0 0-.35-.367A.956.956 0 0 0 8 3.54c-.065 0-.173.014-.24.031Zm.085 6.467a1.243 1.243 0 0 0-.872.558 1.214 1.214 0 0 0 1.785 1.598 1.223 1.223 0 0 0 .253-1.624 1.496 1.496 0 0 0-.429-.394 1.299 1.299 0 0 0-.737-.138Z" clip-rule="evenodd"/>
  </g>
  <defs>
    <clipPath id="a">
      <path fill="#fff" d="M0 0h16v16H0z"/>
    </clipPath>
  </defs>
</svg>
